src/assets/duotone/HeartTick.svg

<svg width="24" height="24" viewBox="0 0 24 24"  xmlns="http://www.w3.org/2000/svg">
<path d="M17.1999 12.4004C14.5499 12.4004 12.3999 14.5504 12.3999 17.2004C12.3999 18.1004 12.6499 18.9504 13.0999 19.6704C13.9299 21.0604 15.4499 22.0004 17.1999 22.0004C18.9499 22.0004 20.4799 21.0604 21.2999 19.6704C21.7399 18.9504 21.9999 18.1004 21.9999 17.2004C21.9999 14.5504 19.8499 12.4004 17.1999 12.4004ZM19.5799 16.5704L17.0199 18.9304C16.8799 19.0604 16.6899 19.1304 16.5099 19.1304C16.3199 19.1304 16.1299 19.0604 15.9799 18.9104L14.7999 17.7304C14.5099 17.4404 14.5099 16.9604 14.7999 16.6704C15.0899 16.3804 15.5699 16.3804 15.8599 16.6704L16.5299 17.3404L18.5599 15.4604C18.8599 15.1804 19.3399 15.2004 19.6199 15.5004C19.8999 15.8104 19.8799 16.2904 19.5799 16.5704Z" />
<path opacity="0.4" d="M22 8.68961C22 9.87961 21.81 10.9796 21.48 11.9996C21.27 12.6696 21 13.3096 20.68 13.8996C19.8 12.9696 18.57 12.3996 17.2 12.3996C14.55 12.3996 12.4 14.5496 12.4 17.1996C12.4 18.4296 12.87 19.5496 13.63 20.3996C13.26 20.5696 12.92 20.7096 12.62 20.8096C12.28 20.9296 11.72 20.9296 11.38 20.8096C8.97 19.9896 4.1 16.9996 2.52 11.9996C2.19 10.9796 2 9.87961 2 8.68961C2 5.59961 4.49 3.09961 7.56 3.09961C9.37 3.09961 10.99 3.97959 12 5.32959C13.01 3.97959 14.63 3.09961 16.44 3.09961C19.51 3.09961 22 5.59961 22 8.68961Z" />
</svg>

<?xml version="1.0" encoding="UTF-8"?>
<svg width="24" height="24" viewBox="0 0 24 24" xmlns="http://www.w3.org/2000/svg">
 <path d="m17.2 12.4c-2.65 0-4.8 2.15-4.8 4.8 0 0.9 0.25 1.75 0.7 2.47 0.83 1.39 2.35 2.33 4.1 2.33s3.28-0.94 4.1-2.33c0.44-0.72 0.7-1.57 0.7-2.47 0-2.65-2.15-4.8-4.8-4.8zm2.38 4.17-2.56 2.36c-0.14 0.13-0.33 0.2-0.51 0.2-0.19 0-0.38-0.07-0.53-0.22l-1.18-1.18c-0.29-0.29-0.29-0.77 0-1.06s0.77-0.29 1.06 0l0.67 0.67 2.03-1.88c0.3-0.28 0.78-0.26 1.06 0.04 0.28 0.31 0.26 0.79-0.04 1.07z"/>
 <path d="m22 8.6896c0 1.19-0.19 2.29-0.52 3.31-0.21 0.67-0.48 1.31-0.8 1.9-0.88-0.93-2.11-1.5-3.48-1.5-2.65 0-4.8 2.15-4.8 4.8 0 1.23 0.47 2.35 1.23 3.2-0.37 0.17-0.71 0.31-1.01 0.41-0.34 0.12-0.9 0.12-1.24 0-2.41-0.82-7.28-3.81-8.86-8.81-0.33-1.02-0.52-2.12-0.52-3.31 0-3.09 2.49-5.59 5.56-5.59 1.81 0 3.43 0.87998 4.44 2.23 1.01-1.35 2.63-2.23 4.44-2.23 3.07 0 5.56 2.5 5.56 5.59z" opacity=".4"/>
</svg>
